X: 2002
T: As The Sun Was Setting
R: waltz
M: 3/4
K: Aminor
A3 B A2|e4 a2|g3 a g2|e4 d2|c3 B A2|B3 A G2|A3 B A2|E4 E2|
A3 B A2|e4 a2|g3 a g2|e4 d2|c3 B A2|e3 d e2|A3 G E2|A6|
a3 b a2|^g4 e^f|g3 a g2|^f4 de|f3 g f2|e4 d2|c3 d c2|B4 E2|
A3 B A2|e4 a2|g3 a g2|e4 d2|c3 B A2|e3 d e2|A4 G2|A6||

